U-commodities/img/icons/round-02.svg

<svg width="50" height="50" viewBox="0 0 50 50" fill="none" xmlns="http://www.w3.org/2000/svg">
<path fill-rule="evenodd" clip-rule="evenodd" d="M24 12C24 18.6274 18.6274 24 12 24C5.37258 24 0 18.6274 0 12C0 5.37258 5.37258 0 12 0C18.6274 0 24 5.37258 24 12ZM23 12C23 18.0751 18.0751 23 12 23C5.92487 23 1 18.0751 1 12C1 5.92487 5.92487 1 12 1C18.0751 1 23 5.92487 23 12Z" fill="#FCB457"/>
<path d="M38 24C44.6274 24 50 18.6274 50 12C50 5.37258 44.6274 0 38 0C31.3726 0 26 5.37258 26 12C26 18.6274 31.3726 24 38 24Z" fill="#FCB457"/>
<path fill-rule="evenodd" clip-rule="evenodd" d="M12 50C18.6274 50 24 44.6274 24 38C24 31.3726 18.6274 26 12 26C5.37258 26 0 31.3726 0 38C0 44.6274 5.37258 50 12 50ZM12 49C18.0751 49 23 44.0751 23 38C23 31.9249 18.0751 27 12 27C5.92487 27 1 31.9249 1 38C1 44.0751 5.92487 49 12 49Z" fill="#FCB457"/>
<path fill-rule="evenodd" clip-rule="evenodd" d="M50 38C50 44.6274 44.6274 50 38 50C31.3726 50 26 44.6274 26 38C26 31.3726 31.3726 26 38 26C44.6274 26 50 31.3726 50 38ZM49 38C49 44.0751 44.0751 49 38 49C31.9249 49 27 44.0751 27 38C27 31.9249 31.9249 27 38 27C44.0751 27 49 31.9249 49 38Z" fill="#FCB457"/>
</svg>

<svg width="50" height="50" fill="none" xmlns="http://www.w3.org/2000/svg"><path fill-rule="evenodd" clip-rule="evenodd" d="M24 12c0 6.627-5.373 12-12 12S0 18.627 0 12 5.373 0 12 0s12 5.373 12 12zm-1 0c0 6.075-4.925 11-11 11S1 18.075 1 12 5.925 1 12 1s11 4.925 11 11z" fill="#FCB457"/><path d="M38 24c6.627 0 12-5.373 12-12S44.627 0 38 0 26 5.373 26 12s5.373 12 12 12z" fill="#FCB457"/><path fill-rule="evenodd" clip-rule="evenodd" d="M12 50c6.627 0 12-5.373 12-12s-5.373-12-12-12S0 31.373 0 38s5.373 12 12 12zm0-1c6.075 0 11-4.925 11-11s-4.925-11-11-11S1 31.925 1 38s4.925 11 11 11zm38-11c0 6.627-5.373 12-12 12s-12-5.373-12-12 5.373-12 12-12 12 5.373 12 12zm-1 0c0 6.075-4.925 11-11 11s-11-4.925-11-11 4.925-11 11-11 11 4.925 11 11z" fill="#FCB457"/></svg>
